_site/icons/colour_heart.svg

<svg clip-rule="evenodd" fill-rule="evenodd" height="24" stroke-linecap="round" stroke-linejoin="round" width="24" xmlns="http://www.w3.org/2000/svg"><path d="m20.84 4.61c-1.031-1.032-2.431-1.612-3.89-1.612s-2.859.58-3.89 1.612l-1.06 1.06-1.06-1.06c-1.031-1.031-2.432-1.611-3.89-1.611-3.018 0-5.501 2.483-5.501 5.501 0 1.458.58 2.859 1.611 3.89l8.84 8.84 8.84-8.84c1.032-1.031 1.612-2.431 1.612-3.89s-.58-2.859-1.612-3.89z" fill="#ed4c67" fill-rule="nonzero" stroke="#000" stroke-width="2"/></svg>

<?xml version="1.0" encoding="UTF-8" standalone="no"?><!DOCTYPE svg PUBLIC "-//W3C//DTD SVG 1.1//EN" "http://www.w3.org/Graphics/SVG/1.1/DTD/svg11.dtd"><svg width="24px" height="24px" version="1.1" xmlns="http://www.w3.org/2000/svg" xmlns:xlink="http://www.w3.org/1999/xlink" xml:space="preserve" xmlns:serif="http://www.serif.com/" style="fill-rule:evenodd;clip-rule:evenodd;stroke-linecap:round;stroke-linejoin:round;"><path d="M20.84,4.61C19.809,3.578 18.409,2.998 16.95,2.998C15.491,2.998 14.091,3.578 13.06,4.61L12,5.67L10.94,4.61C9.909,3.579 8.508,2.999 7.05,2.999C4.032,2.999 1.549,5.482 1.549,8.5C1.549,9.958 2.129,11.359 3.16,12.39L12,21.23L20.84,12.39C21.872,11.359 22.452,9.959 22.452,8.5C22.452,7.041 21.872,5.641 20.84,4.61Z" style="fill:rgb(237,76,103);fill-rule:nonzero;stroke:black;stroke-width:2px;"/></svg>
